**kern
*staff1
!!pagebreak:original
*I"P1
=1-
*clefG2
*k[f#]
*M3/8
8r
8bb\L
8b\J
=2
8cc\L
8aa\
8cc#\J
=3
8dd#\L
8b\
[8ee\J
=4
8ee\]
4dd#\
=5
8ee\L
8e\
[8ee\J
=6
8ee\]
4dd#\
=7
8ee\L
8ee\
8aa\J
=8
8aa\L
8dd\
[8gg\J
=9
8gg\L]
16aa\L
16gg\
16ff#\
16ee\JJ
=10
8ff#\
=
*-
